src/images/icons/shrug.svg

<svg width="77" height="20" viewBox="0 0 77 20" fill="none" xmlns="http://www.w3.org/2000/svg">
<path d="M0.54 3.52V2.22H6.3V3.52H0.54ZM13.3042 16.34H11.1242L5.38422 1.38H7.56422L13.3042 16.34ZM12.8555 18.5V17.5H22.8555V18.5H12.8555ZM26.7155 19.82C26.3155 19.18 25.9355 18.52 25.5755 17.84C25.2288 17.16 24.9221 16.4467 24.6555 15.7C24.4021 14.94 24.2021 14.14 24.0555 13.3C23.9088 12.46 23.8355 11.56 23.8355 10.6C23.8355 8.98667 24.0821 7.4 24.5755 5.84C25.0821 4.28 25.7955 2.79333 26.7155 1.38H28.5755C27.7755 2.82 27.1621 4.3 26.7355 5.82C26.3221 7.32667 26.1155 8.92 26.1155 10.6C26.1155 12.28 26.3155 13.88 26.7155 15.4C27.1155 16.92 27.7355 18.3933 28.5755 19.82H26.7155ZM37.5219 0.979999L36.0019 1.48C36.5019 2.54 37.6219 5.62 37.9619 6.76L39.5219 6.22C39.1819 5.1 37.9619 1.92 37.5219 0.979999ZM46.4219 2.26L44.5619 1.72C44.1819 4.74 42.9419 7.94 41.3619 9.96C39.3419 12.52 36.3619 14.44 33.5219 15.28L34.8819 16.66C37.7219 15.66 40.6619 13.6 42.7219 10.88C44.3819 8.72 45.4419 5.88 46.0619 3.38C46.1419 3.08 46.2819 2.58 46.4219 2.26ZM31.9419 2.18L30.3819 2.74C30.8419 3.62 32.2219 7 32.6019 8.24L34.2019 7.66C33.7219 6.34 32.4819 3.3 31.9419 2.18ZM50.1219 1.38C50.5219 2.02 50.8952 2.68667 51.2419 3.38C51.5885 4.06 51.8885 4.78 52.1419 5.54C52.4085 6.28667 52.6152 7.08 52.7619 7.92C52.9219 8.76 53.0019 9.66 53.0019 10.62C53.0019 12.2333 52.7485 13.82 52.2419 15.38C51.7485 16.94 51.0419 18.42 50.1219 19.82H48.2619C49.0619 18.3933 49.6685 16.9267 50.0819 15.42C50.5085 13.9 50.7219 12.3 50.7219 10.62C50.7219 8.94 50.5219 7.34 50.1219 5.82C49.7219 4.3 49.1019 2.82 48.2619 1.38H50.1219ZM53.9883 18.5V17.5H63.9883V18.5H53.9883ZM69.2883 1.38H71.4683L65.7283 16.34H63.5483L69.2883 1.38ZM70.5595 3.52V2.22H76.3195V3.52H70.5595Z" fill="black"/>
</svg>

<svg fill="none" xmlns="http://www.w3.org/2000/svg" viewBox="0 0 77 20"><path d="M.5 3.5V2.2h5.8v1.3H.5Zm12.8 12.8h-2.2l-5.7-15h2.2l5.7 15Zm-.4 2.2v-1h10v1h-10Zm13.8 1.3a31.9 31.9 0 0 1-2-4.1 16.6 16.6 0 0 1-.9-5.1c0-1.6.3-3.2.8-4.8.5-1.5 1.2-3 2.1-4.4h1.9a18 18 0 0 0-1.9 14c.4 1.5 1 3 1.9 4.4h-1.9ZM37.5 1l-1.5.5c.5 1 1.6 4.1 2 5.3l1.5-.6C39.2 5.1 38 2 37.5 1Zm9 1.3-2-.6c-.3 3-1.6 6.2-3.1 8.3-2 2.5-5 4.4-7.9 5.3l1.4 1.4A17.5 17.5 0 0 0 46 3.4l.3-1.1Zm-14.6-.1-1.5.5a56 56 0 0 1 2.2 5.5l1.6-.5a89 89 0 0 0-2.3-5.5Zm18.2-.8a24.2 24.2 0 0 1 2 4.1 14.5 14.5 0 0 1 .9 5.1 17.9 17.9 0 0 1-2.9 9.2h-1.8a19.6 19.6 0 0 0 2.4-9.2 18.8 18.8 0 0 0-2.4-9.2H50ZM54 18.5v-1h10v1H54ZM69.3 1.4h2.2l-5.8 15h-2.2l5.8-15Zm1.3 2.1V2.2h5.7v1.3h-5.7Z" fill="#010101"/></svg>
